;FLAVOR:Marlin
;TIME:3222
;Filament used: 0.761443m
;Layer height: 0.14
;MINX:-8.781
;MINY:-11.314
;MINZ:0.21
;MAXX:8.781
;MAXY:11.313
;MAXZ:74.41
;TARGET_MACHINE.NAME:Unknown
;Generated with Cura_SteamEngine 5.10.1
M140 S50
M105
M190 S50
M104 S195
M105
M109 S195
;MPMD V1 Basic Calibration Tutorial: 
; https://www.thingiverse.com/thing:3892011 
; 
; If you want to put calibration values in your 
; Start Gcode, put them here. 
; 
;If on stock firmware, at minimum, consider adding 
;M665 R here since there is a firmware bug.  
; 
; Calibration part ends here 
; 
G90 ; switch to absolute positioning 
G92 E0 ; reset extrusion distance 
G1 E20 F200 ; purge 20mm of filament to prime nozzle. 
G92 E0 ; reset extrusion distance 
G4 S5 ; Pause for 5 seconds to allow time for removing extruded filament 
G28 ; start from home position 
G1 E-6 F900 ; retract 6mm of filament before starting the bed leveling process 
G92 E0 ; reset extrusion distance 
G4 S5 ; pause for 5 seconds to allow time for removing extruded filament 
G29 P2 Z0.4 ; Auto-level ; ADJUST Z higher or lower to set first layer height. Start with 0.02 adjustments. 
G1 Z30 ; raise Z 30mm to prepare for priming the nozzle 
G1 E5 F200 ; extrude 5mm of filament to help prime the nozzle just prior to the start of the print 
G92 E0 ; reset extrusion distance 
G4 S5 ; pause for 5 seconds to allow time for cleaning the nozzle and build plate if needed 
M82 ;absolute extrusion mode
G92 E0
G92 E0
G1 F3000 E-4
;LAYER_COUNT:531
;LAYER:0
M107
G0 F3600 X8.781 Y-3.985 Z0.21
;TYPE:SKIRT
G1 F3000 E0
G1 F1800 X8.781 Y4.043 E0.28036
G1 X8.139 Y6.414 E0.36615
G1 X6.9 Y8.522 E0.45154
G1 X5.182 Y9.968 E0.52996
G1 X3.688 Y10.788 E0.58948
G1 X1.564 Y11.313 E0.66589
G1 X-1.957 Y11.313 E0.78885
G1 X-4.416 Y10.452 E0.87984
G1 X-5.894 Y9.388 E0.94344
G1 X-7.187 Y8.141 E1.00617
G1 X-8.253 Y6.091 E1.08687
G1 X-8.781 Y4.014 E1.16171
G1 X-8.781 Y-4.039 E1.44295
G1 X-8.187 Y-6.244 E1.5227
G1 X-7.001 Y-8.421 E1.60927
G1 X-4.8 Y-10.287 E1.71005
G1 X-3.075 Y-10.937 E1.77442
G1 X-1.58 Y-11.313 E1.82826
G1 X1.962 Y-11.314 E1.95196
G1 X4.172 Y-10.532 E2.03383
G1 X5.577 Y-9.712 E2.09064
G1 X7.195 Y-8.137 E2.1695
G1 X8.25 Y-6.105 E2.24945
G1 X8.781 Y-3.985 E2.32578
G0 F3600 X8.381 Y-3.936
G1 F1800 X8.381 Y3.991 E2.60261
G1 X7.768 Y6.256 E2.68456
G1 X6.59 Y8.26 E2.76574
G1 X4.954 Y9.637 E2.84042
G1 X3.54 Y10.413 E2.89675
G1 X1.517 Y10.913 E2.96953
G1 X-1.888 Y10.913 E3.08844
G1 X-4.229 Y10.093 E3.17506
G1 X-5.66 Y9.063 E3.23664
G1 X-6.861 Y7.9 E3.29502
G1 X-7.877 Y5.947 E3.37191
G1 X-8.381 Y3.963 E3.44339
G1 X-8.381 Y-3.987 E3.72103
G1 X-7.813 Y-6.095 E3.79728
G1 X-6.686 Y-8.163 E3.87953
G1 X-4.593 Y-9.938 E3.97537
G1 X-2.977 Y-10.549 E4.0357
G1 X-1.53 Y-10.913 E4.08781
G1 X1.893 Y-10.914 E4.20735
G1 X4 Y-10.168 E4.28541
G1 X5.334 Y-9.39 E4.33934
G1 X6.87 Y-7.894 E4.41422
G1 X7.873 Y-5.963 E4.49021
G1 X8.381 Y-3.936 E4.56319
G0 F3600 X7.981 Y-3.887
G1 F1800 X7.981 Y3.938 E4.83647
G1 X7.396 Y6.099 E4.91465
G1 X6.28 Y7.998 E4.99157
G1 X4.726 Y9.306 E5.06251
G1 X3.392 Y10.038 E5.11565
G1 X1.47 Y10.513 E5.18479
G1 X-1.822 Y10.513 E5.29976
G1 X-4.039 Y9.736 E5.3818
G1 X-5.426 Y8.738 E5.44148
G1 X-6.536 Y7.658 E5.49556
G1 X-7.501 Y5.803 E5.56859
G1 X-7.981 Y3.912 E5.63672
G1 X-7.981 Y-3.935 E5.91076
G1 X-7.44 Y-5.944 E5.98342
G1 X-6.37 Y-7.906 E6.06147
G1 X-4.387 Y-9.588 E6.15228
G1 X-2.879 Y-10.161 E6.20861
G1 X-1.48 Y-10.513 E6.259
G1 X1.825 Y-10.514 E6.37442
G1 X3.831 Y-9.804 E6.44873
G1 X5.088 Y-9.07 E6.49957
G1 X6.545 Y-7.651 E6.57059
G1 X7.496 Y-5.821 E6.64262
G1 X7.981 Y-3.887 E6.71225
G0 F3600 X7.581 Y-3.838
G1 F1800 X7.581 Y3.885 E6.98196
G1 X7.024 Y5.942 E7.05638
G1 X5.97 Y7.736 E7.12905
G1 X4.498 Y8.975 E7.19624
G1 X3.244 Y9.663 E7.24619
G1 X1.423 Y10.113 E7.3117
G1 X-1.753 Y10.113 E7.42262
G1 X-3.854 Y9.377 E7.50036
G1 X-5.147 Y8.451 E7.5559
G1 X-6.211 Y7.416 E7.60774
G1 X-7.125 Y5.659 E7.67691
G1 X-7.581 Y3.861 E7.74169
G1 X-7.581 Y-3.883 E8.01213
G1 X-7.067 Y-5.793 E8.08121
G1 X-6.054 Y-7.649 E8.15505
G1 X-4.181 Y-9.238 E8.24083
G1 X-2.781 Y-9.773 E8.29317
G1 X-1.43 Y-10.113 E8.34183
G1 X1.757 Y-10.114 E8.45313
G1 X3.662 Y-9.44 E8.5237
G1 X4.845 Y-8.749 E8.57154
G1 X6.218 Y-7.411 E8.63849
G1 X7.12 Y-5.677 E8.70675
G1 X7.581 Y-3.838 E8.77296
G0 F3600 X7.181 Y-3.789
G1 F1800 X7.181 Y3.833 E9.03915
G1 X6.653 Y5.784 E9.10973
G1 X5.66 Y7.474 E9.17819
G1 X4.27 Y8.644 E9.24164
G1 X3.096 Y9.288 E9.2884
G1 X1.376 Y9.713 E9.35028
G1 X-1.684 Y9.713 E9.45714
G1 X-3.668 Y9.018 E9.53056
G1 X-4.868 Y8.164 E9.58199
G1 X-5.886 Y7.174 E9.63159
G1 X-6.749 Y5.515 E9.69689
G1 X-7.181 Y3.81 E9.75832
G1 X-7.181 Y-3.831 E10.02517
G1 X-6.694 Y-5.642 E10.09066
G1 X-5.739 Y-7.392 E10.16028
G1 X-3.973 Y-8.89 E10.24116
G1 X-2.683 Y-9.385 E10.28941
G1 X-1.38 Y-9.713 E10.33633
G1 X1.689 Y-9.714 E10.44351
G1 X3.493 Y-9.076 E10.51034
G1 X4.602 Y-8.428 E10.5552
G1 X5.891 Y-7.171 E10.61807
G1 X6.744 Y-5.533 E10.68257
G1 X7.181 Y-3.789 E10.74536
G0 F3600 X6.781 Y-3.74
G1 F1800 X6.781 Y3.78 E11.00798
G1 X6.281 Y5.627 E11.0748
G1 X5.35 Y7.212 E11.139
G1 X4.042 Y8.313 E11.19871
G1 X2.948 Y8.913 E11.24228
G1 X1.329 Y9.313 E11.30052
G1 X-1.615 Y9.313 E11.40334
G1 X-3.482 Y8.659 E11.47242
G1 X-4.589 Y7.877 E11.51976
G1 X-5.561 Y6.932 E11.5671
G1 X-6.373 Y5.371 E11.62855
G1 X-6.781 Y3.759 E11.68662
G1 X-6.781 Y-3.779 E11.94987
G1 X-6.321 Y-5.491 E12.01178
G1 X-5.424 Y-7.135 E12.07718
G1 X-3.765 Y-8.541 E12.15313
G1 X-2.585 Y-8.997 E12.19731
G1 X-1.33 Y-9.313 E12.24251
G1 X1.621 Y-9.314 E12.34556
G1 X3.324 Y-8.712 E12.40864
G1 X4.359 Y-8.107 E12.45051
G1 X5.564 Y-6.931 E12.50931
G1 X6.368 Y-5.388 E12.57008
G1 X6.781 Y-3.74 E12.62941
G0 F3600 X6.381 Y-3.691
G1 F1800 X6.381 Y3.727 E12.88847
G1 X5.909 Y5.47 E12.95153
G1 X5.04 Y6.95 E13.01147
G1 X3.814 Y7.982 E13.06744
G1 X2.8 Y8.538 E13.10782
G1 X1.282 Y8.913 E13.16243
G1 X-1.549 Y8.913 E13.2613
G1 X-3.295 Y8.301 E13.32591
G1 X-4.31 Y7.59 E13.36919
G1 X-5.236 Y6.69 E13.41428
G1 X-5.997 Y5.227 E13.47188
G1 X-6.381 Y3.708 E13.52659
G1 X-6.381 Y-3.727 E13.78625
G1 X-5.947 Y-5.342 E13.84465
G1 X-5.11 Y-6.877 E13.90571
G1 X-3.558 Y-8.192 E13.97675
G1 X-2.487 Y-8.609 E14.01689
G1 X-1.28 Y-8.913 E14.06035
G1 X1.553 Y-8.914 E14.15929
G1 X3.155 Y-8.348 E14.21863
G1 X4.113 Y-7.788 E14.25738
G1 X5.238 Y-6.689 E14.3123
G1 X5.992 Y-5.243 E14.36926
G1 X6.381 Y-3.691 E14.42513
G0 F3600 X5.981 Y-3.642
G1 F1800 X5.981 Y3.675 E14.68067
G1 X5.538 Y5.312 E14.73989
G1 X4.73 Y6.688 E14.79562
G1 X3.586 Y7.651 E14.84784
G1 X2.652 Y8.163 E14.88504
G1 X1.235 Y8.513 E14.93601
G1 X-1.48 Y8.513 E15.03083
G1 X-3.11 Y7.942 E15.09114
G1 X-4.08 Y7.262 E15.13251
G1 X-4.912 Y6.447 E15.17319
G1 X-5.62 Y5.085 E15.2268
G1 X-5.981 Y3.657 E15.27824
G1 X-5.981 Y-3.675 E15.53429
G1 X-5.573 Y-5.193 E15.58919
G1 X-4.796 Y-6.619 E15.6459
G1 X-3.351 Y-7.843 E15.71204
G1 X-2.342 Y-8.236 E15.74985
G1 X-1.231 Y-8.513 E15.78984
G1 X1.485 Y-8.514 E15.88469
G1 X2.986 Y-7.984 E15.94028
G1 X3.867 Y-7.469 E15.97592
G1 X4.912 Y-6.447 E16.02697
G1 X5.616 Y-5.098 E16.08011
G1 X5.981 Y-3.642 E16.13253
G0 F3600 X5.581 Y-3.593
G1 F1800 X5.581 Y3.623 E16.38453
G1 X5.167 Y5.154 E16.43992
G1 X4.42 Y6.426 E16.49144
G1 X3.358 Y7.32 E16.53992
G1 X2.504 Y7.788 E16.57393
G1 X1.188 Y8.113 E16.62127
G1 X-1.414 Y8.113 E16.71214
G1 X-2.923 Y7.584 E16.76798
G1 X-3.8 Y6.976 E16.80525
G1 X-4.587 Y6.205 E16.84372
G1 X-5.243 Y4.943 E16.8934
G1 X-5.581 Y3.606 E16.94156
G1 X-5.581 Y-3.623 E17.19402
G1 X-5.199 Y-5.044 E17.2454
G1 X-4.481 Y-6.363 E17.29785
G1 X-3.144 Y-7.495 E17.35903
G1 X-2.245 Y-7.848 E17.39276
G1 X-1.182 Y-8.113 E17.43102
G1 X1.417 Y-8.114 E17.52178
G1 X2.817 Y-7.62 E17.57363
G1 X3.621 Y-7.15 E17.60616
G1 X4.586 Y-6.206 E17.6533
G1 X5.24 Y-4.953 E17.70266
G1 X5.581 Y-3.593 E17.75163
G0 F3600 X5.181 Y-3.544
G1 F1800 X5.181 Y3.571 E18.0001
G1 X4.796 Y4.996 E18.05165
G1 X4.109 Y6.166 E18.09904
G1 X3.133 Y6.987 E18.14358
G1 X2.356 Y7.413 E18.17452
G1 X1.141 Y7.713 E18.21823
G1 X-1.345 Y7.713 E18.30505
G1 X-2.741 Y7.224 E18.35671
G1 X-3.52 Y6.69 E18.38969
G1 X-4.262 Y5.963 E18.42597
G1 X-4.866 Y4.801 E18.4717
G1 X-5.181 Y3.555 E18.51659
G1 X-5.181 Y-3.571 E18.76545
G1 X-4.825 Y-4.895 E18.81333
G1 X-4.166 Y-6.105 E18.86145
G1 X-2.937 Y-7.146 E18.91769
G1 X-2.148 Y-7.46 E18.94735
G1 X-1.133 Y-7.713 E18.98388
G1 X1.349 Y-7.714 E19.07056
G1 X2.648 Y-7.256 E19.11866
G1 X3.375 Y-6.831 E19.14807
G1 X4.26 Y-5.965 E19.19132
G1 X4.864 Y-4.808 E19.2369
G1 X5.181 Y-3.544 E19.28241
G0 F3600 X4.781 Y-3.495
G1 F1800 X4.781 Y3.519 E19.52736
G1 X4.424 Y4.84 E19.57515
G1 X3.8 Y5.903 E19.61819
G1 X2.905 Y6.656 E19.65904
G1 X2.208 Y7.038 E19.6868
G1 X1.094 Y7.313 E19.72687
G1 X-1.276 Y7.313 E19.80964
G1 X-2.561 Y6.863 E19.85719
G1 X-3.24 Y6.404 E19.88581
G1 X-3.937 Y5.721 E19.91989
G1 X-4.489 Y4.659 E19.96169
G1 X-4.781 Y3.504 E20.00329
G1 X-4.781 Y-3.519 E20.24856
G1 X-4.451 Y-4.746 E20.29293
G1 X-3.851 Y-5.849 E20.33678
G1 X-2.73 Y-6.798 E20.38808
G1 X-2.051 Y-7.072 E20.41365
G1 X-1.084 Y-7.313 E20.44845
G1 X1.281 Y-7.314 E20.53104
G1 X2.479 Y-6.892 E20.5754
G1 X3.129 Y-6.512 E20.6017
G1 X3.934 Y-5.724 E20.64104
G1 X4.488 Y-4.663 E20.68284
G1 X4.781 Y-3.495 E20.72489
G0 F3600 X4.381 Y-3.446
G1 F1800 X4.381 Y3.467 E20.96631
G1 X4.053 Y4.682 E21.01026
G1 X3.49 Y5.641 E21.0491
G1 X2.677 Y6.325 E21.08621
G1 X2.06 Y6.663 E21.11077
G1 X1.047 Y6.913 E21.14721
G1 X-1.21 Y6.913 E21.22603
G1 X-2.379 Y6.503 E21.2693
G1 X-2.96 Y6.118 E21.29364
G1 X-3.612 Y5.479 E21.32552
G1 X-4.112 Y4.517 E21.36338
G1 X-4.381 Y3.453 E21.40171
G1 X-4.381 Y-3.467 E21.64338
G1 X-4.077 Y-4.597 E21.68425
G1 X-3.536 Y-5.593 E21.72383
G1 X-2.523 Y-6.45 E21.77017
G1 X-1.901 Y-6.701 E21.79359
G1 X-1.037 Y-6.913 E21.82466
G1 X1.213 Y-6.914 E21.90324
G1 X2.31 Y-6.528 E21.94385
G1 X2.883 Y-6.193 E21.96703
G1 X3.608 Y-5.483 E22.00247
G1 X4.112 Y-4.518 E22.04049
G1 X4.381 Y-3.446 E22.07909
G0 F3600 X3.981 Y-3.397
G1 F1800 X3.981 Y3.415 E22.31698
G1 X3.681 Y4.526 E22.35717
G1 X3.18 Y5.38 E22.39175
G1 X2.452 Y5.992 E22.42497
G1 X1.912 Y6.288 E22.44647
G1 X1 Y6.513 E22.47928
G1 X-1.144 Y6.513 E22.55415
G1 X-2.196 Y6.144 E22.59308
G1 X-2.708 Y5.805 E22.61453
G1 X-3.287 Y5.237 E22.64286
G1 X-3.735 Y4.375 E22.67678
G1 X-3.981 Y3.402 E22.71183
G1 X-3.981 Y-3.415 E22.9499
G1 X-3.704 Y-4.445 E22.98715
G1 X-3.219 Y-5.338 E23.02264
G1 X-2.316 Y-6.102 E23.06395
G1 X-1.751 Y-6.33 E23.08523
G1 X-.989 Y-6.513 E23.11259
G1 X1.145 Y-6.514 E23.18712
G1 X2.141 Y-6.164 E23.22399
G1 X2.637 Y-5.874 E23.24405
G1 X3.282 Y-5.242 E23.27559
G1 X3.736 Y-4.373 E23.30983
G1 X3.981 Y-3.397 E23.34497
G0 F3600 X3.581 Y-3.348
G1 F1800 X3.581 Y3.363 E23.57934
G1 X3.309 Y4.37 E23.61577
G1 X2.87 Y5.119 E23.64609
G1 X2.227 Y5.659 E23.67541
G1 X1.764 Y5.913 E23.69386
G1 X0.953 Y6.113 E23.72303
G1 X-1.078 Y6.113 E23.79396
G1 X-2.014 Y5.785 E23.82859
G1 X-2.428 Y5.519 E23.84578
G1 X-2.962 Y4.995 E23.87191
G1 X-3.358 Y4.233 E23.9019
G1 X-3.581 Y3.351 E23.93367
G1 X-3.581 Y-3.363 E24.16814
G1 X-3.331 Y-4.293 E24.20177
G1 X-2.902 Y-5.083 E24.23317
G1 X-2.109 Y-5.754 E24.26945
G1 X-1.601 Y-5.959 E24.28858
G1 X-.944 Y-6.113 E24.31214
G1 X1.078 Y-6.114 E24.38276
G1 X1.972 Y-5.8 E24.41585
G1 X2.391 Y-5.555 E24.4328
G1 X2.956 Y-5.001 E24.46044
G1 X3.36 Y-4.228 E24.4909
G1 X3.581 Y-3.348 E24.52258
G0 F3600 X3.181 Y-3.299
G1 F1800 X3.181 Y3.311 E24.75342
G1 X2.937 Y4.214 E24.78609
G1 X2.56 Y4.857 E24.81212
G1 X2.023 Y5.315 E24.83677
G1 X1.668 Y5.525 E24.85117
G1 X0.906 Y5.713 E24.87858
G1 X-1.012 Y5.713 E24.94557
G1 X-1.839 Y5.423 E24.97617
G1 X-2.148 Y5.234 E24.98882
G1 X-2.636 Y4.755 E25.0127
G1 X-2.981 Y4.091 E25.03883
G1 X-3.181 Y3.3 E25.06733
G1 X-3.181 Y-3.311 E25.2982
G1 X-2.957 Y-4.144 E25.32833
G1 X-2.587 Y-4.825 E25.3554
G1 X-1.899 Y-5.408 E25.38689
G1 X-1.51 Y-5.57 E25.40161
G1 X-.9 Y-5.713 E25.42349
G1 X1.011 Y-5.714 E25.49022
G1 X1.839 Y-5.423 E25.52087
G1 X2.148 Y-5.234 E25.53352
G1 X2.631 Y-4.76 E25.55716
G1 X2.983 Y-4.087 E25.58368
G1 X3.181 Y-3.299 E25.61206
G0 F3600 X2.781 Y-3.249
G1 F1800 X2.781 Y3.259 E25.83934
G1 X2.566 Y4.056 E25.86816
G1 X2.248 Y4.597 E25.89008
G1 X1.763 Y5.011 E25.91235
G1 X1.515 Y5.151 E25.9223
G1 X0.859 Y5.313 E25.94589
G1 X-.945 Y5.313 E26.00889
G1 X-1.645 Y5.073 E26.03474
G1 X-1.868 Y4.949 E26.04365
G1 X-2.309 Y4.516 E26.06523
G1 X-2.605 Y3.947 E26.08763
G1 X-2.781 Y3.249 E26.11277
G1 X-2.781 Y-3.259 E26.34005
G1 X-2.583 Y-3.995 E26.36667
G1 X-2.272 Y-4.567 E26.38941
G1 X-1.687 Y-5.063 E26.41619
G1 X-1.419 Y-5.181 E26.42642
G1 X-.856 Y-5.313 E26.44661
G1 X0.944 Y-5.314 E26.50947
G1 X1.645 Y-5.073 E26.53536
G1 X1.868 Y-4.949 E26.54427
G1 X2.305 Y-4.52 E26.56566
G1 X2.606 Y-3.945 E26.58832
G1 X2.781 Y-3.249 E26.61339
G0 F3600 X2.381 Y-3.199
G1 F1800 X2.381 Y3.207 E26.83711
G1 X2.194 Y3.9 E26.86217
G1 X1.937 Y4.338 E26.87991
G1 X1.504 Y4.707 E26.89978
G1 X1.366 Y4.776 E26.90516
G1 X0.812 Y4.913 E26.92509
G1 X-.879 Y4.913 E26.98415
G1 X-1.515 Y4.695 E27.00763
G1 X-1.66 Y4.607 E27.01355
G1 X-1.982 Y4.277 E27.02965
G1 X-2.229 Y3.803 E27.04832
G1 X-2.381 Y3.199 E27.07007
G1 X-2.381 Y-3.207 E27.29379
G1 X-2.209 Y-3.846 E27.3169
G1 X-1.957 Y-4.309 E27.33531
G1 X-1.471 Y-4.722 E27.35758
G1 X-1.328 Y-4.792 E27.36314
G1 X-.812 Y-4.913 E27.38165
G1 X0.878 Y-4.914 E27.44067
G1 X1.515 Y-4.695 E27.4642
G1 X1.66 Y-4.607 E27.47012
G1 X1.979 Y-4.28 E27.48607
G1 X2.229 Y-3.803 E27.50488
G1 X2.381 Y-3.199 E27.52663
G0 F3600 X1.981 Y-3.149
G1 F1800 X1.981 Y3.155 E27.74679
G1 X1.823 Y3.742 E27.76802
G1 X1.592 Y4.135 E27.78394
G1 X1.26 Y4.39 E27.79856
G1 X0.812 Y4.513 E27.81478
G1 X-.813 Y4.513 E27.87153
G1 X-1.385 Y4.317 E27.89265
G1 X-1.632 Y4.083 E27.90453
G1 X-1.841 Y3.705 E27.91961
G1 X-1.981 Y3.149 E27.93964
G1 X-1.981 Y-3.155 E28.15979
G1 X-1.823 Y-3.742 E28.18102
G1 X-1.611 Y-4.109 E28.19582
G1 X-1.227 Y-4.405 E28.21276
G1 X-.812 Y-4.513 E28.22773
G1 X0.812 Y-4.514 E28.28445
G1 X1.385 Y-4.317 E28.30561
G1 X1.629 Y-4.086 E28.31734
G1 X1.841 Y-3.705 E28.33257
G1 X1.981 Y-3.149 E28.35259
G0 F3600 X1.181 Y-3.099
G1 F1800 X1.181 Y3.103 E28.56919
G1 X1.054 Y3.522 E28.58448
G1 X0.955 Y3.653 E28.59021
G1 X0.812 Y3.713 E28.59563
G1 X-.813 Y3.713 E28.65238
G1 X-.964 Y3.644 E28.65817
G1 X-1.068 Y3.498 E28.66443
G1 X-1.181 Y3.099 E28.67892
G1 X-1.181 Y-3.103 E28.89551
G1 X-1.054 Y-3.522 E28.9108
G1 X-.955 Y-3.653 E28.91653
G1 X-.812 Y-3.713 E28.92195
G1 X0.812 Y-3.714 E28.97867
G1 X0.963 Y-3.645 E28.98446
G1 X1.068 Y-3.498 E28.99077
G1 X1.181 Y-3.099 E29.00525
G0 F3600 X1.581 Y-3.099
G1 F1800 X1.581 Y3.103 E29.22185
G1 X1.437 Y3.638 E29.2412
G1 X1.256 Y3.917 E29.25281
G1 X1.138 Y4.009 E29.25804
G1 X0.812 Y4.113 E29.26999
G1 X-.813 Y4.113 E29.32674
G1 X-1.13 Y4.008 E29.3384
G1 X-1.29 Y3.876 E29.34564
G1 X-1.453 Y3.607 E29.35663
G1 X-1.581 Y3.099 E29.37492
G1 X-1.581 Y-3.103 E29.59152
G1 X-1.437 Y-3.638 E29.61086
G1 X-1.274 Y-3.894 E29.62146
G1 X-1.11 Y-4.022 E29.62873
G1 X-.812 Y-4.113 E29.63961
G1 X0.812 Y-4.114 E29.69633
G1 X1.129 Y-4.009 E29.70799
G1 X1.288 Y-3.877 E29.7152
G1 X1.453 Y-3.607 E29.72626
G1 X1.581 Y-3.099 E29.74455
G1 F3000 E25.74455
;MESH:pod.stl
G0 F3600 X0.552 Y-3.036
G0 X0.071 Y2.633
G0 X0.29 Y2.822
;TYPE:WALL-INNER
G1 F3000 E29.74455
G1 F1241.4 X0.29 Y-2.822 E30.03035
G1 X-.29 Y-2.822 E30.05973
G1 X-.29 Y2.64 E30.33631
G0 F1620 X-.29 Y2.822
G0 X0.29 Y2.822
G0 F3600 X0.698 Y3.312
;TYPE:WALL-OUTER
G1 F1800 X0.78 Y3.067 E30.34534
G1 X0.78 Y-3.069 E30.55962
G1 X0.705 Y-3.312 E30.56851
G1 X-.698 Y-3.312 E30.6175
G1 X-.78 Y-3.067 E30.62653
G1 X-.78 Y3.069 E30.84081
G1 X-.705 Y3.312 E30.84969
G1 X-0.064 Y3.312 E30.87208
G0 F1620 X0.698 Y3.312
G0 F3600 X0.761 Y3.123
